X: 28839
T: My Tocher's The Jewel
R: jig
M: 6/8
K: Eminor
|:B,EE ~E2D|EGA Bed|B2A G/A/BA|GDD D2D|
B,EE ~E2D|EGA Bed|Bge dBA|1 GEE E2D:|2 GEE E2 B||
|:ded dBG|ABd e2e|dBA GBA|GDD D2D|
EGD EGD|EGA Bed|Bge dBA|1 GEE E2B:|2 GEE E3||

